X: 752
T: Kilkenny Girl, The
R:jig
B:O'Neill's 752
Z:Transcribed by Michael Hogan
M:6/8
L:1/8
K:G
B | d2B d2B | G2G GAB | c2A c2A | FGA D2B |
d2B g2d | e2c g2e | ded BcA | G3 G2 :|
D | DFA  cAF | GBd dBG | DFA cAF | GBd dBG |
ece ege | dBd dgd | edc BcA | G3 G2 :|


